X:1261
T:A Persian Song.
C:John Malchair's Third Collection of Tunes
F:https://www.vwml.org/record/Malchair/3619/p126
F:www.vwml.org/topics/historic-dance-and-tune-books/Malchair
Z:Eric Conrad Feb 2020
M:C|
L:1/4
K:C  % no sharps or flats ending on G (V?)
GG | GG EF | G2 (FE) | D2 zD/E/ | FF DE | FF EE | C2 zD |
DD D2 | D2 EF | G3/2 A/G/F/E/D/ | zC CC | A,/G,/A,/(B,/ C)C | B,B, G,2 |]


